X: 405
T: A Trip To Bavaria
R: barndance
M: 4/4
K: Dmajor
|:A|Ad df fa a2|a>a b>f ag ag|Ac ce ea a2|c'>d' c'>d' ba {b/c'/}ba|
Ad df fa a2|a>a c'>d' c'b b>d'|c'b c'b {b/c'/}ba ba|a>g fe/>e/ d2- d:|
|:A/>A/|Ad f>d Ad f2|a2 b>a ag g2|Ac e>c Ac ea|c'>d' c'>d' ba {b/c'/}ba|
Ad f>d Ad f2|a2 d'>c' c'b b>d'|c'b c'b ba ba|a>g fe/>e/ dd d:|

